archdroid-icon-theme/Archdroid-DeepPurple/apps/scalable/autokey-status-dark.svg

<svg height="24" viewBox="0 0 24 24" width="24" xmlns="http://www.w3.org/2000/svg"><path d="m5 3c-1.108 0-2 .892-2 2v14c0 1.108.892 2 2 2h14c1.108 0 2-.892 2-2v-14c0-1.108-.892-2-2-2z" fill="#673AB7"/><path d="m11.753906 4.974609c-.03675.009459-.068234.036024-.083984.070313l-5.955078 12.847656c-.037494.076338.025801.179941.111328.181641h2.109375c.046584-.00075.092464-.028933.113281-.070313l1.34961-2.917968h4.316406l.492187 2.882812c.010196.058568.067083.105653.126953.105469h2.490235c.074042.000119.13696-.073945.125-.146485l-2.277344-12.847656c-.010197-.05857-.067083-.105652-.126953-.105469h-2.763672c-.00933-.00103-.018044-.00103-.027344 0zm.830078 2.714844.871094 5.421875h-3.169922z"/></svg>

<svg height="24" version="1.1" viewBox="0 0 24 24" width="24" xml:space="preserve" xmlns="http://www.w3.org/2000/svg" xmlns:xlink="http://www.w3.org/1999/xlink"><filter id="a" color-interpolation-filters="sRGB"><feGaussianBlur stdDeviation="1.71"/></filter><g display="none" transform="translate(-2 -70)"><g display="inline" filter="url(#a)" opacity=".9"><linearGradient id="b" gradientTransform="matrix(1.0059 0 0 -.9942 9.9104 69.4184)" gradientUnits="userSpaceOnUse" x1="37.867699" x2="37.867699" y1="-22.7129" y2="62.785599"><stop offset="0"/><stop offset="1" stop-opacity=".5882"/></linearGradient><path d="m12 7l72 0c3.866 0 7 3.134 7 7l0 71c0 3.866-3.134 7-7 7L12 92C8.134 92 5 88.866 5 85L5 14C5 10.134 8.134 7 12 7Z" fill="url(#b)"/></g></g><path d="M5 3C3.892 3 3 3.892 3 5l0 14c0 1.108.892 2 2 2l14 0c1.108 0 2-.892 2-2L21 5C21 3.892 20.108 3 19 3L5 3Z" fill="#673AB7"/><path d="M11.753906 4.974609C11.717156 4.984068 11.685672 5.010633 11.669922 5.044922L5.714844 17.892578C5.67735 17.968916 5.740645 18.072519 5.826172 18.074219L7.935547 18.074219C7.982131 18.073469 8.028011 18.045286 8.048828 18.003906L9.398438 15.085938 13.714844 15.085938 14.207031 17.96875C14.217227 18.027318 14.274114 18.074403 14.333984 18.074219L16.824219 18.074219C16.898261 18.074338 16.961179 18.000274 16.949219 17.927734L14.671875 5.080078C14.661678 5.021508 14.604792 4.974426 14.544922 4.974609L11.78125 4.974609C11.77192 4.973579 11.763206 4.973579 11.753906 4.974609zM12.583984 7.689453L13.455078 13.111328 10.285156 13.111328 12.583984 7.689453z"/></svg>
